X:56     %Music
T:A Trip to Paris     %Tune name
Q:1/4=120     %Tempo
M:2/4     %Meter
L:1/16     %
K:Am
A2 || "Am"c3d e2e2 | "Am"c3d e2e2 | "Am"c2e2 c2e2 | "Am"c2Bc A2A2 |
"Am"c3d e2e2 | "Am"c3d e2e2 | "Am"c2A2 "E"B2^G2 | "Am"A6 e2 | "F"a4 a2^g2 |
"Am"a2gf e2e2 | "Dm"a4 a2^g2 | "Am"a2gf e2e2 | "Dm"f3e "G"d2g2 | "C"e6 f2 |
"G"d6 e2 | "Am"c6 d2 | "G"d2c2 d2B2 | "Am"c6 c2 | "G"B2c2 d2e2 |
"Am"c2Bc A2c2 | "G"B2c2 d2e2 | "Am"c2Bc A2c2 | "C"E2F2 G2A2 | "G"B4 "F"a4 |
"Am"e2dc "E"d2cB | "Am"A6 |]
